Numix-GalliumOS/22/status/touchpad-indicator-light-disabled.svg

<?xml version="1.0" encoding="UTF-8" standalone="no"?>
<svg
   xmlns:dc="http://purl.org/dc/elements/1.1/"
   xmlns:cc="http://creativecommons.org/ns#"
   xmlns:rdf="http://www.w3.org/1999/02/22-rdf-syntax-ns#"
   xmlns:svg="http://www.w3.org/2000/svg"
   xmlns="http://www.w3.org/2000/svg"
   xmlns:sodipodi="http://sodipodi.sourceforge.net/DTD/sodipodi-0.dtd"
   xmlns:inkscape="http://www.inkscape.org/namespaces/inkscape"
   width="22"
   viewBox="0 0 22 22"
   height="22"
   id="svg2"
   version="1.1"
   inkscape:version="0.91 r"
   sodipodi:docname="touchpad-indicator-light-disabled.svg">
  <metadata
     id="metadata14">
    <rdf:RDF>
      <cc:Work
         rdf:about="">
        <dc:format>image/svg+xml</dc:format>
        <dc:type
           rdf:resource="http://purl.org/dc/dcmitype/StillImage" />
        <dc:title />
      </cc:Work>
    </rdf:RDF>
  </metadata>
  <defs
     id="defs12" />
  <sodipodi:namedview
     pagecolor="#ffffff"
     bordercolor="#666666"
     borderopacity="1"
     objecttolerance="10"
     gridtolerance="10"
     guidetolerance="10"
     inkscape:pageopacity="0"
     inkscape:pageshadow="2"
     inkscape:window-width="1280"
     inkscape:window-height="998"
     id="namedview10"
     showgrid="false"
     inkscape:zoom="15.326826"
     inkscape:cx="11.11283"
     inkscape:cy="12.562274"
     inkscape:window-x="0"
     inkscape:window-y="0"
     inkscape:window-maximized="1"
     inkscape:current-layer="svg2" />
  <path
     style="font-size:medium;font-style:normal;font-variant:normal;font-weight:normal;font-stretch:normal;text-indent:0;text-align:start;text-decoration:none;line-height:normal;letter-spacing:normal;word-spacing:normal;text-transform:none;direction:ltr;block-progression:tb;writing-mode:lr-tb;text-anchor:start;baseline-shift:baseline;color:#000000;fill:#ececec;fill-opacity:1;stroke:none;stroke-width:1;marker:none;visibility:visible;display:inline;overflow:visible;enable-background:accumulate;font-family:Sans;-inkscape-font-specification:Sans"
     d="M 5.5,3 C 4.1236486,3 3,4.1236486 3,5.5 l 0,11 C 3,17.876351 4.1236486,19 5.5,19 l 11,0 c 1.376351,0 2.5,-1.123649 2.5,-2.5 l 0,-11 C 19,4.1236486 17.876351,3 16.5,3 l -11,0 z m 0,1 11,0 C 17.339649,4 18,4.6603514 18,5.5 l 0,11 c 0,0.839649 -0.660351,1.5 -1.5,1.5 l -11,0 C 4.6603514,18 4,17.339649 4,16.5 L 4,5.5 C 4,4.6603514 4.6603514,4 5.5,4 z"
     id="rect2993"
     inkscape:connector-curvature="0" />
  <rect
     style="fill:#ececec;fill-opacity:1;stroke:none"
     id="rect3763"
     width="16"
     height="1"
     x="3"
     y="14" />
  <rect
     y="-12"
     x="14"
     height="2"
     width="5"
     id="rect3765"
     style="fill:#ececec;fill-opacity:1;stroke:none"
     transform="matrix(0,1,-1,0,0,0)" />
  <path
     d="M 7.0029037,5.0002293 H 8.002572 c 0.010366,-1.2e-4 0.020783,-4.598e-4 0.03124,0 0.2548654,0.011195 0.5097008,0.1285168 0.6872719,0.3123464 L 11.001327,7.5914551 13.31256,5.3125757 c 0.265912,-0.229887 0.446852,-0.2998526 0.687772,-0.3098476 H 15 v 0.9995085 c 0,0.2863292 -0.03433,0.5503793 -0.249917,0.7496314 l -2.280443,2.2800788 2.249253,2.2488942 c 0.187938,0.189907 0.280907,0.449779 0.280907,0.719646 v 0.999509 h -0.999668 c -0.265212,-10e-6 -0.530414,-0.09305 -0.718512,-0.281112 l -2.280243,-2.27888 -2.2802435,2.27888 C 8.5331959,12.90879 8.2672841,12.998746 8.002372,12.998746 H 7.0027038 v -0.999508 c -3e-6,-0.26516 0.093029,-0.53032 0.2811567,-0.718397 L 9.5643037,9.0319468 7.2840604,6.7530674 C 7.0741301,6.5631608 6.9811609,6.2832984 7.0031536,6.003436 V 5.0039275 z"
     style="text-indent:0;text-transform:none;block-progression:tb;color:#bebebe;fill:#ef555c;fill-opacity:1;enable-background:new"
     id="path10839-9"
     inkscape:connector-curvature="0" />
</svg>

<svg xmlns="http://www.w3.org/2000/svg" viewBox="0 0 22 22">
 <path d="m 5.5 3 c -1.376 0 -2.5 1.124 -2.5 2.5 l 0 11 c 0 1.376 1.124 2.5 2.5 2.5 l 11 0 c 1.376 0 2.5 -1.124 2.5 -2.5 l 0 -11 c 0 -1.376 -1.124 -2.5 -2.5 -2.5 l -11 0 z m 0 1 11 0 c 0.84 0 1.5 0.66 1.5 1.5 l 0 11 c 0 0.84 -0.66 1.5 -1.5 1.5 l -11 0 c -0.84 0 -1.5 -0.66 -1.5 -1.5 l 0 -11 c 0 -0.84 0.66 -1.5 1.5 -1.5 z" style="visibility:visible;fill:#ececec;fill-opacity:1;stroke:none;display:inline;color:#000"/>
 <rect width="16" height="1" x="3" y="14" style="fill:#ececec;fill-opacity:1;stroke:none"/>
 <rect y="-12" x="14" height="2" width="5" transform="matrix(0,1,-1,0,0,0)" style="fill:#ececec;fill-opacity:1;stroke:none"/>
 <path d="m 7 5 l 1 0 c 0.01 0 0.021 0 0.031 0 0.255 0.011 0.51 0.129 0.687 0.312 l 2.28 2.279 2.311 -2.279 c 0.266 -0.23 0.447 -0.3 0.688 -0.31 l 1 0 l 0 1 c 0 0.286 -0.034 0.55 -0.25 0.75 l -2.28 2.28 2.249 2.249 c 0.188 0.19 0.281 0.45 0.281 0.72 l 0 1 l -1 0 c -0.265 0 -0.53 -0.093 -0.719 -0.281 l -2.28 -2.279 -2.28 2.279 c -0.188 0.19 -0.454 0.28 -0.719 0.28 l -1 0 l 0 -1 c 0 -0.265 0.093 -0.53 0.281 -0.718 l 2.28 -2.249 -2.28 -2.279 c -0.21 -0.19 -0.303 -0.47 -0.281 -0.75 l 0 -1 z" style="fill:#ef555c;fill-opacity:1;color:#bebebe"/>
</svg>
